EdiMM/images/6photos.svg

<svg id="_6photos" data-name="6photos" xmlns="http://www.w3.org/2000/svg" width="24" height="24" viewBox="0 0 24 24">
  <path id="Caminho_69" data-name="Caminho 69" d="M0,0H24V24H0Z" fill="none"/>
  <path id="Caminho_70" data-name="Caminho 70" d="M21.02,5H19V2.98A.982.982,0,0,0,18.02,2h-.03a.984.984,0,0,0-.99.98V5H14.99a1,1,0,0,0-.99.98v.03a.986.986,0,0,0,.99.99H17V9.01a.977.977,0,0,0,.99.98h.03A.982.982,0,0,0,19,9.01V7h2.02A.982.982,0,0,0,22,6.02V5.98A.982.982,0,0,0,21.02,5ZM16,9.01V8H14.99A1.981,1.981,0,0,1,13,5.98,1.921,1.921,0,0,1,13.27,5H5A2.006,2.006,0,0,0,3,7V19a2.006,2.006,0,0,0,2,2H17a2.006,2.006,0,0,0,2-2V10.72a2.048,2.048,0,0,1-1.02.28A2,2,0,0,1,16,9.01ZM15.96,19H6a.5.5,0,0,1-.4-.8l1.98-2.63a.505.505,0,0,1,.82.02L10,18l2.61-3.48a.5.5,0,0,1,.79-.01l2.95,3.68A.5.5,0,0,1,15.96,19Z" fill="#fff"/>
</svg>

<svg xmlns="http://www.w3.org/2000/svg" width="24" height="24" viewBox="0 0 24 24"><path fill="none" d="M0 0h24v24H0V0z"/><path d="M21.02 5H19V2.98c0-.54-.44-.98-.98-.98h-.03c-.55 0-.99.44-.99.98V5h-2.01c-.54 0-.98.44-.99.98v.03c0 .55.44.99.99.99H17v2.01c0 .54.44.99.99.98h.03c.54 0 .98-.44.98-.98V7h2.02c.54 0 .98-.44.98-.98v-.04c0-.54-.44-.98-.98-.98zM16 9.01V8h-1.01c-.53 0-1.03-.21-1.41-.58-.37-.38-.58-.88-.58-1.44 0-.36.1-.69.27-.98H5c-1.1 0-2 .9-2 2v12c0 1.1.9 2 2 2h12c1.1 0 2-.9 2-2v-8.28c-.3.17-.64.28-1.02.28-1.09-.01-1.98-.9-1.98-1.99zM15.96 19H6c-.41 0-.65-.47-.4-.8l1.98-2.63c.21-.28.62-.26.82.02L10 18l2.61-3.48c.2-.26.59-.27.79-.01l2.95 3.68c.26.33.03.81-.39.81z"/></svg>
